libs/icons/src/svg/users.svg

<svg width="16" height="16" viewBox="0 0 16 16" fill="none" xmlns="http://www.w3.org/2000/svg">
<path d="M15.3333 14.6667H12.6667C12.2667 14.6667 12 14.4 12 14C12 13.6 12.2667 13.3333 12.6667 13.3333H14.6667V11.1333L12.2 10.1333C11.9333 10.0667 11.7333 9.86667 11.6 9.66667C11.4667 9.46667 11.4 9.2 11.4 8.93333V8.33333C11.4 8.06667 11.5333 7.86667 11.7333 7.73333C12.0667 7.53333 12.2667 7.33333 12.4667 7C12.6 6.66667 12.6667 6.33333 12.6667 6V4.66667C12.6667 4.33333 12.6 4 12.4 3.66667C12.2 3.33333 12 3.13333 11.6667 2.93333C11.0667 2.6 10.2667 2.6 9.66667 2.93333C9.33333 3.13333 8.93333 3 8.73333 2.66667C8.53333 2.33333 8.66667 1.93333 9 1.73333C10 1.13333 11.3333 1.13333 12.3333 1.73333C12.8667 2 13.2667 2.46667 13.5333 2.93333C13.8667 3.46667 14 4.06667 14 4.66667V6C14 6.6 13.8667 7.13333 13.5333 7.66667C13.3333 8.06667 13 8.4 12.6667 8.66667V8.86667L15.1333 9.86667C15.4 9.93333 15.6 10.1333 15.7333 10.3333C15.8667 10.5333 15.9333 10.8 15.9333 11.0667V14C16 14.3333 15.7333 14.6667 15.3333 14.6667Z" fill="#202327"/>
<path d="M10 14.6667H0.666667C0.266667 14.6667 0 14.4 0 14V11.8C0 11.5333 0.0666667 11.2667 0.2 11.0667C0.333333 10.8667 0.533333 10.6667 0.8 10.6L3.33333 9.53333V9.33333C3 9.06667 2.66667 8.73333 2.46667 8.33333C2.13333 7.8 2 7.26667 2 6.66667V5.33333C2 4.46667 2.33333 3.6 3 3C3.6 2.33333 4.46667 2 5.33333 2C6.2 2 7.06667 2.33333 7.66667 3C8.33333 3.6 8.66667 4.46667 8.66667 5.33333V6.66667C8.66667 7.26667 8.53333 7.8 8.2 8.33333C8 8.73333 7.66667 9.06667 7.33333 9.33333V9.53333L9.8 10.5333C10.0667 10.6 10.2667 10.8 10.4 11C10.5333 11.2 10.6 11.4667 10.6 11.7333V14C10.6667 14.3333 10.4 14.6667 10 14.6667ZM1.33333 13.3333H9.33333V11.8L6.86667 10.8C6.6 10.7333 6.4 10.5333 6.26667 10.3333C6.06667 10.0667 6 9.8 6 9.53333V8.93333C6 8.66667 6.13333 8.46667 6.33333 8.33333C6.66667 8.13333 6.86667 7.93333 7.06667 7.6C7.26667 7.33333 7.33333 7 7.33333 6.66667V5.33333C7.33333 4.8 7.13333 4.26667 6.73333 3.93333C6 3.13333 4.66667 3.13333 3.93333 3.93333C3.53333 4.26667 3.33333 4.8 3.33333 5.33333V6.66667C3.33333 7 3.4 7.33333 3.6 7.66667C3.8 8 4 8.2 4.33333 8.4C4.53333 8.46667 4.66667 8.73333 4.66667 8.93333V9.53333C4.66667 9.8 4.6 10.0667 4.46667 10.2667C4.33333 10.4667 4.13333 10.6667 3.86667 10.7333L1.33333 11.8V13.3333Z" fill="#202327"/>
</svg>

<svg xmlns="http://www.w3.org/2000/svg" viewBox="0 0 16 16" class="sageicon"><path d="M15.333 14.667h-2.666c-.4 0-.667-.267-.667-.667s.267-.667.667-.667h2v-2.2l-2.467-1c-.267-.066-.467-.266-.6-.466-.133-.2-.2-.467-.2-.734v-.6a.7.7 0 0 1 .333-.6c.334-.2.534-.4.734-.733.133-.333.2-.667.2-1V4.667c0-.334-.067-.667-.267-1-.2-.334-.4-.534-.733-.734-.6-.333-1.4-.333-2 0-.334.2-.734.067-.934-.266-.2-.334-.066-.734.267-.934 1-.6 2.333-.6 3.333 0 .534.267.934.734 1.2 1.2.334.534.467 1.134.467 1.734V6c0 .6-.133 1.133-.467 1.667-.2.4-.533.733-.866 1v.2l2.466 1c.267.066.467.266.6.466.134.2.2.467.2.734V14c.067.333-.2.667-.6.667ZM10 14.667H.667C.267 14.667 0 14.4 0 14v-2.2c0-.267.067-.533.2-.733.133-.2.333-.4.6-.467l2.533-1.067v-.2c-.333-.266-.666-.6-.866-1A3.009 3.009 0 0 1 2 6.667V5.333C2 4.467 2.333 3.6 3 3c.6-.667 1.467-1 2.333-1 .867 0 1.734.333 2.334 1 .666.6 1 1.467 1 2.333v1.334c0 .6-.134 1.133-.467 1.666-.2.4-.533.734-.867 1v.2l2.467 1c.267.067.467.267.6.467.133.2.2.467.2.733V14c.067.333-.2.667-.6.667Zm-8.667-1.334h8V11.8l-2.466-1c-.267-.067-.467-.267-.6-.467a1.28 1.28 0 0 1-.267-.8v-.6a.7.7 0 0 1 .333-.6c.334-.2.534-.4.734-.733.2-.267.266-.6.266-.933V5.333c0-.533-.2-1.066-.6-1.4-.733-.8-2.066-.8-2.8 0-.4.334-.6.867-.6 1.4v1.334c0 .333.067.666.267 1 .2.333.4.533.733.733.2.067.334.333.334.533v.6c0 .267-.067.534-.2.734-.134.2-.334.4-.6.466L1.333 11.8v1.533Z"/></svg>
